deployments/warp_routes/wM/logo.svg

<svg
    width="319"
    height="319"
    viewBox="0 0 319 319"
    fill="none"
    xmlns="http://www.w3.org/2000/svg"
  >
    <g clip-path="url(#clip0_747_54429)">
      <path
        d="M159.5 319C247.589 319 319 247.589 319 159.5C319 71.4106 247.589 0 159.5 0C71.4106 0 0 71.4106 0 159.5C0 247.589 71.4106 319 159.5 319Z"
        fill="black"
      />
      <path
        d="M102.53 221.556H160.185V169.245H102.53V221.556Z"
        fill="#606060"
      />
      <path
        d="M102.53 221.556H160.185V169.245H102.53V221.556Z"
        fill="url(#paint0_linear_747_54429)"
        fill-opacity="0.6"
      />
      <path
        d="M160.183 221.556H217.838V169.245H160.183V221.556Z"
        fill="#C1C1C1"
      />
      <path
        d="M160.183 221.556H217.838V169.245H160.183V221.556Z"
        fill="url(#paint1_linear_747_54429)"
        fill-opacity="0.5"
      />
      <path
        d="M160.183 41L66 95.3765L160.183 149.752L254.364 95.3765L160.183 41Z"
        fill="#F4F4F4"
      />
      <path
        d="M207.274 209.951H113.091V264.328L160.183 291.516L207.274 264.328V209.951Z"
        fill="#07F7BD"
      />
      <path
        d="M207.274 209.951H113.091V264.328L160.183 291.516L207.274 264.328V209.951Z"
        fill="url(#paint2_linear_747_54429)"
        fill-opacity="0.5"
      />
      <path
        d="M160.183 291.516L207.273 264.328V209.951H160.183V291.516Z"
        fill="#6D6D6D"
      />
      <path
        d="M160.193 291.507L207.558 264.475V209.946L160.193 210.413V291.507Z"
        fill="#07F7BD"
      />
      <path
        d="M160.193 291.507L207.558 264.475V209.946L160.193 210.413V291.507Z"
        fill="url(#paint3_linear_747_54429)"
      />
      <path
        d="M160.183 182.765L113.091 209.953L160.183 237.14L207.274 209.953L160.183 182.765Z"
        fill="#07F7BD"
      />
      <path
        d="M160.183 149.752L254.364 95.376V204.128L207.273 231.316V176.94L160.183 204.128V149.752Z"
        fill="#1A1A1A"
      />
      <path
        d="M160.183 149.752L254.364 95.376V204.128L207.273 231.316V176.94L160.183 204.128V149.752Z"
        fill="url(#paint4_linear_747_54429)"
        fill-opacity="0.5"
      />
      <path
        d="M160.182 149.752L66 95.376V204.128L113.09 231.316V176.94L160.182 204.128V149.752Z"
        fill="#DFDFDF"
      />
      <path
        d="M160.182 149.752L66 95.376V204.128L113.09 231.316V176.94L160.182 204.128V149.752Z"
        fill="url(#paint5_linear_747_54429)"
        fill-opacity="0.2"
      />
      <path
        d="M113.091 68.1885L66 95.3767L160.183 149.752L254.365 95.3767L207.274 68.1885L160.183 95.3767L113.091 68.1885Z"
        fill="#F4F4F4"
      />
      <path
        d="M160.212 41.0137L112.76 68.4091L160.212 95.8055L207.663 68.4091L160.212 41.0137Z"
        fill="#DFDFDF"
      />
      <path
        d="M160.212 41.0137L112.76 68.4091L160.212 95.8055L207.663 68.4091L160.212 41.0137Z"
        fill="url(#paint6_linear_747_54429)"
        fill-opacity="0.2"
      />
    </g>
    <defs>
      <linearGradient
        id="paint0_linear_747_54429"
        x1="131.357"
        y1="169.245"
        x2="131.357"
        y2="221.556"
        gradientUnits="userSpaceOnUse"
      >
        <stop />
        <stop
          offset="0.545346"
          stop-opacity="0"
        />
      </linearGradient>
      <linearGradient
        id="paint1_linear_747_54429"
        x1="218.14"
        y1="200.223"
        x2="180.463"
        y2="173.311"
        gradientUnits="userSpaceOnUse"
      >
        <stop stop-opacity="0" />
        <stop offset="1" />
      </linearGradient>
      <linearGradient
        id="paint2_linear_747_54429"
        x1="113.365"
        y1="262.657"
        x2="198.047"
        y2="272.345"
        gradientUnits="userSpaceOnUse"
      >
        <stop stop-opacity="0" />
        <stop offset="1" />
      </linearGradient>
      <linearGradient
        id="paint3_linear_747_54429"
        x1="138.843"
        y1="208.834"
        x2="224.829"
        y2="253.202"
        gradientUnits="userSpaceOnUse"
      >
        <stop
          stop-color="#000001"
          stop-opacity="0"
        />
        <stop
          offset="1"
          stop-color="#000001"
        />
      </linearGradient>
      <linearGradient
        id="paint4_linear_747_54429"
        x1="207.273"
        y1="95.376"
        x2="335.474"
        y2="253.327"
        gradientUnits="userSpaceOnUse"
      >
        <stop stop-opacity="0" />
        <stop offset="1" />
      </linearGradient>
      <linearGradient
        id="paint5_linear_747_54429"
        x1="86.417"
        y1="132.548"
        x2="160.182"
        y2="219.814"
        gradientUnits="userSpaceOnUse"
      >
        <stop stop-opacity="0" />
        <stop offset="1" />
      </linearGradient>
      <linearGradient
        id="paint6_linear_747_54429"
        x1="160.212"
        y1="41.0137"
        x2="215.296"
        y2="96.097"
        gradientUnits="userSpaceOnUse"
      >
        <stop stop-opacity="0" />
        <stop offset="1" />
      </linearGradient>
      <clipPath id="clip0_747_54429">
        <rect
          width="319"
          height="319"
          fill="white"
        />
      </clipPath>
    </defs>
  </svg>

<svg xmlns="http://www.w3.org/2000/svg" width="319" height="319" fill="none" viewBox="0 0 319 319"><g clip-path="url(#a)"><path fill="#000" d="M159.5 319c88.089 0 159.5-71.411 159.5-159.5C319 71.41 247.589 0 159.5 0 71.41 0 0 71.41 0 159.5 0 247.589 71.41 319 159.5 319"/><path fill="#606060" d="M102.53 221.556h57.655v-52.311H102.53z"/><path fill="url(#b)" fill-opacity=".6" d="M102.53 221.556h57.655v-52.311H102.53z"/><path fill="#C1C1C1" d="M160.183 221.556h57.655v-52.311h-57.655z"/><path fill="url(#c)" fill-opacity=".5" d="M160.183 221.556h57.655v-52.311h-57.655z"/><path fill="#F4F4F4" d="M160.183 41 66 95.376l94.183 54.376 94.181-54.376z"/><path fill="#07F7BD" d="M207.274 209.951h-94.183v54.377l47.092 27.188 47.091-27.188z"/><path fill="url(#d)" fill-opacity=".5" d="M207.274 209.951h-94.183v54.377l47.092 27.188 47.091-27.188z"/><path fill="#6D6D6D" d="m160.183 291.516 47.09-27.188v-54.377h-47.09z"/><path fill="#07F7BD" d="m160.193 291.507 47.365-27.032v-54.529l-47.365.467z"/><path fill="url(#e)" d="m160.193 291.507 47.365-27.032v-54.529l-47.365.467z"/><path fill="#07F7BD" d="m160.183 182.765-47.092 27.188 47.092 27.187 47.091-27.187z"/><path fill="#1A1A1A" d="m160.183 149.752 94.181-54.376v108.752l-47.091 27.188V176.94l-47.09 27.188z"/><path fill="url(#f)" fill-opacity=".5" d="m160.183 149.752 94.181-54.376v108.752l-47.091 27.188V176.94l-47.09 27.188z"/><path fill="#DFDFDF" d="M160.182 149.752 66 95.376v108.752l47.09 27.188V176.94l47.092 27.188z"/><path fill="url(#g)" fill-opacity=".2" d="M160.182 149.752 66 95.376v108.752l47.09 27.188V176.94l47.092 27.188z"/><path fill="#F4F4F4" d="M113.091 68.189 66 95.377l94.183 54.375 94.182-54.375-47.091-27.188-47.091 27.188z"/><path fill="#DFDFDF" d="M160.212 41.014 112.76 68.409l47.452 27.396 47.451-27.396z"/><path fill="url(#h)" fill-opacity=".2" d="M160.212 41.014 112.76 68.409l47.452 27.396 47.451-27.396z"/></g><defs><linearGradient id="b" x1="131.357" x2="131.357" y1="169.245" y2="221.556" gradientUnits="userSpaceOnUse"><stop/><stop offset=".545" stop-opacity="0"/></linearGradient><linearGradient id="c" x1="218.14" x2="180.463" y1="200.223" y2="173.311" gradientUnits="userSpaceOnUse"><stop stop-opacity="0"/><stop offset="1"/></linearGradient><linearGradient id="d" x1="113.365" x2="198.047" y1="262.657" y2="272.345" gradientUnits="userSpaceOnUse"><stop stop-opacity="0"/><stop offset="1"/></linearGradient><linearGradient id="e" x1="138.843" x2="224.829" y1="208.834" y2="253.202" gradientUnits="userSpaceOnUse"><stop stop-color="#000001" stop-opacity="0"/><stop offset="1" stop-color="#000001"/></linearGradient><linearGradient id="f" x1="207.273" x2="335.474" y1="95.376" y2="253.327" gradientUnits="userSpaceOnUse"><stop stop-opacity="0"/><stop offset="1"/></linearGradient><linearGradient id="g" x1="86.417" x2="160.182" y1="132.548" y2="219.814" gradientUnits="userSpaceOnUse"><stop stop-opacity="0"/><stop offset="1"/></linearGradient><linearGradient id="h" x1="160.212" x2="215.296" y1="41.014" y2="96.097" gradientUnits="userSpaceOnUse"><stop stop-opacity="0"/><stop offset="1"/></linearGradient><clipPath id="a"><path fill="#fff" d="M0 0h319v319H0z"/></clipPath></defs></svg>
